X:44
T:Pour la jeune Cloris. [FJ44]
S:Festin joyeux.  Music page 22.
Z:transcribed by Eric Conrad, 2021.
N:NB The meter is given simply as "3"
N:NB In the MS, the G is the bottom line of the staff
N:NB Repeat marks were added at beginning and end.
N:NB The MS repeat mark is 4 vertical dots enclosed by bars on both sides.
N:NB The plus signs seem to indicate some kind of roll or trill.
N:NB1 MS has "|c2||", here "|c3:|"
M:3/4
L:1/4
% K:C clef=treble1 % staff GBdfa
K:C % empty sig and end C (C Major)
|: c d/c/B/A/ | G2c | d3/ e/d/e/ | "^+"e2d | e f/e/d/c/ | d e/d/c/B/ |
AG^F | G3 :: g f/e/d/e/ | "^+"e2d | f f/e/d/e/ | "^+"e2d |
e/d/c/B/ A | f/e/d/c/ B | c/d/ "^+"d>c | "_NB1"c3 :|

